src/symbolic/status/battery-missing-symbolic.svg

<svg xmlns="http://www.w3.org/2000/svg" width="16" height="16" version="1.1">
 <path style="fill:#444444" d="M 6,1 V 2 H 3 V 14 C 3,14.55 3.446,15 4,15 H 12 C 12.554,15 13,14.55 13,14 V 2 H 10 V 1 Z M 8,5 C 9.105,5 10,5.8954 10,7 10,8.105 9.105,9 8,9 V 10 H 7 V 8 H 8 C 8.552,8 9,7.552 9,7 9,6.4477 8.552,6 8,6 7.448,6 7,6.4477 7,7 H 6 C 6,5.8954 6.895,5 8,5 Z M 7,11 H 8 V 12 H 7 Z"/>
</svg>

<svg xmlns="http://www.w3.org/2000/svg" width="16" height="16"><path d="M6 1v1H3v12a1 1 0 0 0 1 1h8a1 1 0 0 0 1-1V2h-3V1zm2 4a2 2 0 1 1 0 4v1H7V8h1a1 1 0 1 0-1-1H6a2 2 0 0 1 2-2zm-1 6h1v1H7z" fill="#444"/></svg>
